%
(Header)
(Generated by gcodetools from Inkscape.)
(Using default header. To add your own header create file "header" in the output dir.)
M3
(Header end.)
G21 (All units in mm)
G90 

(Start cutting path id: path7960)
(Change tool to Default tool)

G00 Z 0.0000
G00 X 98.9512 Y 214.0938

G01 Z -0.0000 F 100.0000(Penetrate)
G03 X 92.3785 Y 214.0243 Z -0.0000 I -2.7323 J -52.4859 F 400.0000
G03 X 85.6582 Y 213.1016 Z -0.0000 I 3.9167 J -53.4570
G03 X 57.3008 Y 196.7279 Z -0.0000 I 10.2099 J -50.4251
G03 X 44.1719 Y 166.1133 Z -0.0000 I 39.9119 J -35.2386
G03 X 45.3528 Y 150.2401 Z -0.0000 I 49.3913 J -4.3058
G03 X 51.6250 Y 135.0488 Z -0.0000 I 51.4065 J 12.3343
G03 X 67.3402 Y 118.7896 Z -0.0000 I 44.0847 J 26.8854
G03 X 88.9805 Y 110.4863 Z -0.0000 I 29.8054 J 45.3283
G03 X 97.0519 Y 109.9370 Z -0.0000 I 7.3317 J 48.1570
G03 X 104.8828 Y 110.7285 Z -0.0000 I -0.6994 J 46.0549
G03 X 112.3371 Y 112.6347 Z -0.0000 I -11.1262 J 59.0372
G03 X 118.9785 Y 115.3106 Z -0.0000 I -16.1619 J 49.6943
G03 X 137.3903 Y 130.2350 Z -0.0000 I -22.7216 J 46.8501
G03 X 147.2812 Y 151.7773 Z -0.0000 I -41.1404 J 31.9311
G03 X 146.2949 Y 176.5111 Z -0.0000 I -50.8781 J 10.3575
G03 X 133.9707 Y 197.9688 Z -0.0000 I -49.8532 J -14.3651
G03 X 117.7524 Y 209.4988 Z -0.0000 I -37.9832 J -36.2562
G03 X 98.9512 Y 214.0938 Z -0.0000 I -21.4975 J -47.1992
G01 X 98.9512 Y 214.0938 Z -0.0000
G00 Z 0.0000

(End cutting path id: path7960)


(Start cutting path id: path7960)
(Change tool to Default tool)

G00 Z 0.0000
G00 X 97.4609 Y 213.0957

G01 Z -0.0000 F 100.0000(Penetrate)
G02 X 105.9902 Y 212.1906 Z -0.0000 I -1.1757 J -51.7218 F 400.0000
G02 X 114.1445 Y 209.8809 Z -0.0000 I -9.1150 J -47.7275
G02 X 116.2488 Y 208.9069 Z -0.0000 I -5.8778 J -15.4585
G02 X 116.1856 Y 208.7559 Z -0.0000 I -0.0397 J -0.0721
G03 X 110.8178 Y 209.5813 Z -0.0000 I -5.6817 J -19.0818
G03 X 104.4258 Y 208.9414 Z -0.0000 I -0.4393 J -27.8578
G03 X 95.1959 Y 204.9976 Z -0.0000 I 5.7224 J -26.1648
G03 X 88.1953 Y 198.0195 Z -0.0000 I 14.4973 J -21.5448
G02 X 88.1077 Y 197.9942 Z -0.0000 I -0.0591 J 0.0400
G02 X 86.6621 Y 198.6895 Z -0.0000 I 8.6929 J 19.9235
G03 X 80.6567 Y 200.8615 Z -0.0000 I -10.8121 J -20.5059
G03 X 73.5137 Y 201.4766 Z -0.0000 I -6.0599 J -28.5905
G03 X 68.2579 Y 200.7611 Z -0.0000 I 1.0022 J -27.0224
G03 X 63.3594 Y 199.0605 Z -0.0000 I 5.9750 J -25.1176
G03 X 61.3860 Y 198.0293 Z -0.0000 I 10.0178 J -21.5742
G03 X 59.4805 Y 196.7949 Z -0.0000 I 12.3190 J -21.1046
G02 X 58.0623 Y 195.9334 Z -0.0000 I -6.4114 J 8.9560
G02 X 57.9768 Y 196.0234 Z -0.0000 I -0.0294 J 0.0577
G02 X 58.3223 Y 196.4839 Z -0.0000 I 2.0430 J -1.1732
G02 X 60.5977 Y 198.7402 Z -0.0000 I 49.4669 J -47.6080
G02 X 70.0687 Y 205.9181 Z -0.0000 I 37.4257 J -39.5454
G02 X 80.4980 Y 210.6465 Z -0.0000 I 25.9531 J -43.3778
G02 X 88.8960 Y 212.5856 Z -0.0000 I 15.5482 J -48.1819
G02 X 97.4609 Y 213.0957 Z -0.0000 I 7.3778 J -51.7163
G01 X 97.4609 Y 213.0957 Z -0.0000
G00 Z 0.0000

(End cutting path id: path7960)


(Start cutting path id: path7960)
(Change tool to Default tool)

G00 Z 0.0000
G00 X 110.0898 Y 208.2656

G01 Z -0.0000 F 100.0000(Penetrate)
G02 X 114.3743 Y 208.0318 Z -0.0000 I -0.1471 J -42.0692 F 400.0000
G02 X 116.6016 Y 207.5762 Z -0.0000 I -1.2458 J -11.7606
G02 X 120.4991 Y 206.0762 Z -0.0000 I -8.8525 J -28.8154
G02 X 123.8535 Y 204.1914 Z -0.0000 I -10.8311 J -23.2042
G02 X 130.3306 Y 197.8954 Z -0.0000 I -13.6660 J -20.5387
G02 X 134.2519 Y 189.4844 Z -0.0000 I -21.2553 J -15.0292
G02 X 134.7270 Y 186.9196 Z -0.0000 I -17.0763 J -4.4889
G02 X 134.9199 Y 183.3887 Z -0.0000 I -32.2078 J -3.5309
G02 X 134.7296 Y 179.8572 Z -0.0000 I -32.8659 J -0.0000
G02 X 134.2695 Y 177.3672 Z -0.0000 I -16.7851 J 1.8141
G02 X 132.1353 Y 171.0023 Z -0.0000 I -49.4003 J 13.0244
G02 X 131.4766 Y 170.5606 Z -0.0000 I -0.6587 J 0.2702
G02 X 131.3721 Y 170.5830 Z -0.0000 I -0.0000 J 0.2542
G02 X 128.9824 Y 171.6856 Z -0.0000 I 62.1278 J 137.7985
G03 X 124.3003 Y 173.3366 Z -0.0000 I -10.4102 J -22.0566
G03 X 119.1660 Y 174.0566 Z -0.0000 I -6.2385 J -25.8203
G03 X 112.2708 Y 173.4594 Z -0.0000 I -1.1271 J -27.0898
G03 X 105.8750 Y 171.1641 Z -0.0000 I 5.5679 J -25.5729
G03 X 103.7651 Y 169.9316 Z -0.0000 I 10.3612 J -20.1594
G03 X 101.4746 Y 168.2637 Z -0.0000 I 16.6696 J -25.2988
G02 X 99.5060 Y 166.8498 Z -0.0000 I -14.2263 J 17.7313
G02 X 99.3965 Y 166.9336 Z -0.0000 I -0.0395 J 0.0618
G03 X 100.3977 Y 179.5735 Z -0.0000 I -27.0610 J 8.5032
G03 X 95.8887 Y 190.7266 Z -0.0000 I -25.2573 J -3.7232
G03 X 93.2489 Y 193.8478 Z -0.0000 I -20.7906 J -14.9067
G03 X 89.9023 Y 196.7539 Z -0.0000 I -21.3482 J -21.2037
G01 X 89.0176 Y 197.4141 Z -0.0000
G01 X 90.1270 Y 198.8516 Z -0.0000
G02 X 95.9389 Y 204.2336 Z -0.0000 I 18.9019 J -14.5827
G02 X 103.6113 Y 207.6914 Z -0.0000 I 14.7634 J -22.5170
G02 X 105.7970 Y 208.0833 Z -0.0000 I 3.2872 J -12.0413
G02 X 110.0898 Y 208.2656 Z -0.0000 I 4.1293 J -46.6045
G01 X 110.0898 Y 208.2656 Z -0.0000
G00 Z 0.0000

(End cutting path id: path7960)


(Start cutting path id: path7960)
(Change tool to Default tool)

G00 Z 0.0000
G00 X 130.3535 Y 199.9258

G01 Z -0.0000 F 100.0000(Penetrate)
G02 X 130.4554 Y 199.9271 Z -0.0000 I 0.0516 J -0.0517 F 400.0000
G02 X 132.8672 Y 197.5430 Z -0.0000 I -56.0995 J -59.1611
G02 X 142.4272 Y 183.5554 Z -0.0000 I -35.7655 J -34.7052
G02 X 147.0644 Y 166.4824 Z -0.0000 I -49.4207 J -22.5895
G02 X 147.0799 Y 157.3107 Z -0.0000 I -45.6904 J -4.6627
G02 X 145.2266 Y 147.8555 Z -0.0000 I -50.4266 J 4.9747
G02 X 144.4078 Y 145.2946 Z -0.0000 I -62.3750 J 18.5302
G02 X 144.2243 Y 144.9695 Z -0.0000 I -0.9662 J 0.3311
G02 X 144.1141 Y 145.0070 Z -0.0000 I -0.0478 J 0.0401
G02 X 144.1406 Y 146.5586 Z -0.0000 I 13.2587 J 0.5498
G03 X 141.8931 Y 159.0027 Z -0.0000 I -25.0663 J 1.8978
G03 X 133.8691 Y 168.7812 Z -0.0000 I -22.8280 J -10.5505
G01 X 132.3516 Y 169.8867 Z -0.0000
G01 X 133.3125 Y 171.8106 Z -0.0000
G03 X 135.2878 Y 177.3118 Z -0.0000 I -22.1451 J 11.0566
G03 X 135.9785 Y 183.3887 Z -0.0000 I -26.3848 J 6.0768
G03 X 135.8682 Y 186.6792 Z -0.0000 I -49.1278 J -0.0000
G03 X 135.6543 Y 188.2148 Z -0.0000 I -10.8475 J -0.7282
G03 X 133.7590 Y 194.2033 Z -0.0000 I -31.8006 J -6.7703
G03 X 131.2832 Y 198.4629 Z -0.0000 I -18.4308 J -7.8633
G02 X 130.3415 Y 199.8169 Z -0.0000 I 15.6163 J 11.8656
G02 X 130.3535 Y 199.9258 Z -0.0000 I 0.0740 J 0.0469
G01 X 130.3535 Y 199.9258 Z -0.0000
G00 Z 0.0000

(End cutting path id: path7960)


(Start cutting path id: path7960)
(Change tool to Default tool)

G00 Z 0.0000
G00 X 118.6289 Y 173.0820

G01 Z -0.0000 F 100.0000(Penetrate)
G02 X 122.3469 Y 172.7109 Z -0.0000 I -0.6103 J -24.9196 F 400.0000
G02 X 126.0918 Y 171.7481 Z -0.0000 I -4.3569 J -24.7107
G02 X 129.7616 Y 170.3015 Z -0.0000 I -13.6422 J -39.9870
G02 X 130.7578 Y 169.6523 Z -0.0000 I -1.5747 J -3.5057
G02 X 130.7902 Y 169.1837 Z -0.0000 I -0.2259 J -0.2510
G02 X 126.8906 Y 165.0606 Z -0.0000 I -37.8269 J 31.8696
G02 X 121.7213 Y 161.3095 Z -0.0000 I -17.1405 J 18.1840
G02 X 115.7715 Y 158.9922 Z -0.0000 I -11.9649 J 21.9234
G02 X 110.6801 Y 158.2731 Z -0.0000 I -6.0274 J 24.2907
G02 X 105.8125 Y 158.6191 Z -0.0000 I -0.8436 J 22.5392
G02 X 98.0615 Y 160.8359 Z -0.0000 I 7.2627 J 40.0540
G02 X 97.2617 Y 162.0137 Z -0.0000 I 0.4673 J 1.1778
G02 X 97.3545 Y 162.3041 Z -0.0000 I 0.5009 J 0.0000
G02 X 98.7461 Y 164.0996 Z -0.0000 I 22.7080 J -16.1625
G02 X 107.8651 Y 170.9428 Z -0.0000 I 19.3777 J -16.3247
G02 X 118.6289 Y 173.0820 Z -0.0000 I 10.1503 J -22.9232
G01 X 118.6289 Y 173.0820 Z -0.0000
G00 Z 0.0000

(End cutting path id: path7960)


(Start cutting path id: path7960)
(Change tool to Default tool)

G00 Z 0.0000
G00 X 131.7500 Y 168.7441

G01 Z -0.0000 F 100.0000(Penetrate)
G02 X 131.9615 Y 168.7438 Z -0.0000 I 0.1053 J -0.3057 F 400.0000
G02 X 132.3887 Y 168.5566 Z -0.0000 I -0.9784 J -2.8140
G02 X 134.7426 Y 166.8282 Z -0.0000 I -4.8694 J -9.0987
G02 X 138.2012 Y 162.8594 Z -0.0000 I -23.4498 J -23.9264
G02 X 142.9624 Y 150.6069 Z -0.0000 I -19.9703 J -14.8116
G02 X 140.8144 Y 137.6055 Z -0.0000 I -24.8549 J -2.5719
G02 X 133.6294 Y 128.4741 Z -0.0000 I -22.5697 J 10.3665
G02 X 122.8496 Y 123.4297 Z -0.0000 I -16.1452 J 20.4617
G02 X 116.6549 Y 122.9814 Z -0.0000 I -4.7464 J 22.5638
G02 X 110.1172 Y 124.2305 Z -0.0000 I 1.6643 J 26.4451
G02 X 105.3528 Y 126.1381 Z -0.0000 I 12.0166 J 36.9146
G02 X 105.1914 Y 126.5918 Z -0.0000 I 0.1477 J 0.3081
G02 X 105.2647 Y 126.7452 Z -0.0000 I 15.4533 J -7.2883
G02 X 106.2129 Y 128.7012 Z -0.0000 I 1315.5329 J -636.5238
G03 X 107.7821 Y 132.7868 Z -0.0000 I -23.0713 J 11.2053
G03 X 108.7168 Y 137.3691 Z -0.0000 I -28.0891 J 8.1161
G03 X 107.6480 Y 148.2040 Z -0.0000 I -24.8191 J 3.0219
G03 X 101.9883 Y 157.8262 Z -0.0000 I -24.9800 J -8.2175
G02 X 101.6089 Y 158.4305 Z -0.0000 I 1.4247 J 1.3156
G02 X 101.7070 Y 158.5391 Z -0.0000 I 0.0760 J 0.0300
G03 X 105.4996 Y 157.7710 Z -0.0000 I 7.0599 J 25.1130
G03 X 109.9629 Y 157.4981 Z -0.0000 I 4.3446 J 34.4142
G03 X 114.3826 Y 157.6970 Z -0.0000 I -0.1818 J 53.2289
G03 X 116.3574 Y 158.0527 Z -0.0000 I -0.9476 J 10.9200
G03 X 123.1366 Y 160.9244 Z -0.0000 I -7.5241 J 27.1998
G03 X 128.6309 Y 165.2676 Z -0.0000 I -12.9563 J 22.0369
G03 X 130.6212 Y 167.4199 Z -0.0000 I -58.2897 J 55.8993
G03 X 131.1973 Y 168.1465 Z -0.0000 I -5.9904 J 5.3412
G02 X 131.5662 Y 168.6197 Z -0.0000 I 4.9472 J -3.4766
G02 X 131.7500 Y 168.7441 Z -0.0000 I 0.3223 J -0.2781
G01 X 131.7500 Y 168.7441 Z -0.0000
G00 Z 0.0000

(End cutting path id: path7960)


(Start cutting path id: path7960)
(Change tool to Default tool)

G00 Z 0.0000
G00 X 96.4688 Y 160.7617

G01 Z -0.0000 F 100.0000(Penetrate)
G02 X 97.1933 Y 160.7290 Z -0.0000 I 0.3383 J -0.5474 F 400.0000
G02 X 100.7188 Y 157.5742 Z -0.0000 I -16.4739 J -21.9565
G02 X 107.4057 Y 144.0805 Z -0.0000 I -18.9038 J -17.7717
G02 X 105.4082 Y 129.5156 Z -0.0000 I -24.3807 J -4.0757
G02 X 104.3843 Y 127.5019 Z -0.0000 I -31.8029 J 14.9032
G02 X 104.1914 Y 127.2988 Z -0.0000 I -0.4824 J 0.2651
G02 X 103.9535 Y 127.3000 Z -0.0000 I -0.1180 J 0.1908
G02 X 102.3164 Y 128.4863 Z -0.0000 I 8.5893 J 13.5760
G02 X 95.3754 Y 137.3481 Z -0.0000 I 16.6920 J 20.2231
G02 X 92.9473 Y 147.9727 Z -0.0000 I 22.1644 J 10.6553
G02 X 93.2438 Y 151.9356 Z -0.0000 I 26.1930 J 0.0323
G02 X 94.1172 Y 155.6797 Z -0.0000 I 24.2266 J -3.6771
G02 X 95.7982 Y 160.0054 Z -0.0000 I 35.1539 J -11.1713
G02 X 96.4688 Y 160.7617 Z -0.0000 I 1.5941 J -0.7380
G01 X 96.4688 Y 160.7617 Z -0.0000
G00 Z 0.0000

(End cutting path id: path7960)


(Start cutting path id: path7960)
(Change tool to Default tool)

G00 Z 0.0000
G00 X 93.4258 Y 157.0898

G01 Z -0.0000 F 100.0000(Penetrate)
G01 X 93.0625 Y 156.0606 Z -0.0000 F 400.0000
G03 X 91.7416 Y 148.7402 Z -0.0000 I 21.9241 J -7.7353
G03 X 92.7930 Y 141.0254 Z -0.0000 I 25.4922 J -0.4550
G03 X 94.2490 Y 137.1185 Z -0.0000 I 29.4112 J 8.7361
G03 X 96.0762 Y 133.7695 Z -0.0000 I 23.2791 J 10.5281
G03 X 98.9661 Y 130.0472 Z -0.0000 I 23.0373 J 14.9028
G03 X 102.1269 Y 127.2246 Z -0.0000 I 16.2815 J 15.0514
G02 X 103.2632 Y 126.2743 Z -0.0000 I -6.9255 J -9.4344
G02 X 103.3574 Y 126.0547 Z -0.0000 I -0.2086 J -0.2196
G02 X 102.8746 Y 124.8047 Z -0.0000 I -1.8594 J 0.0000
G02 X 98.4297 Y 120.6289 Z -0.0000 I -28.4663 J 25.8472
G02 X 92.2872 Y 117.0105 Z -0.0000 I -15.6860 J 19.6050
G02 X 85.2383 Y 115.2070 Z -0.0000 I -9.9499 J 24.2124
G02 X 82.8031 Y 114.9769 Z -0.0000 I -8.0494 J 72.1677
G02 X 82.2227 Y 114.9746 Z -0.0000 I -0.3056 J 3.9403
G02 X 72.2020 Y 117.5119 Z -0.0000 I 2.0332 J 29.0861
G02 X 64.4297 Y 123.0527 Z -0.0000 I 10.2799 J 22.6416
G02 X 60.4331 Y 128.6648 Z -0.0000 I 17.9843 J 17.0365
G02 X 58.0879 Y 135.2539 Z -0.0000 I 22.6583 J 11.7765
G02 X 57.5872 Y 141.1591 Z -0.0000 I 24.2407 J 5.0291
G02 X 58.4941 Y 146.7207 Z -0.0000 I 22.3618 J -0.7918
G02 X 59.8509 Y 150.5938 Z -0.0000 I 40.1338 J -11.8847
G02 X 60.8164 Y 152.4375 Z -0.0000 I 10.0133 J -4.0691
G01 X 61.1719 Y 152.9844 Z -0.0000
G01 X 63.1523 Y 152.0098 Z -0.0000
G03 X 71.9196 Y 149.5208 Z -0.0000 I 11.2111 J 22.8044
G03 X 81.3750 Y 150.2481 Z -0.0000 I 2.6478 J 27.4039
G03 X 86.3900 Y 152.1461 Z -0.0000 I -5.9333 J 23.2506
G03 X 91.2168 Y 155.2949 Z -0.0000 I -12.6357 J 24.6435
G01 X 93.4258 Y 157.0898 Z -0.0000
G00 Z 0.0000

(End cutting path id: path7960)


(Start cutting path id: path7960)
(Change tool to Default tool)

G00 Z 0.0000
G00 X 81.0859 Y 165.1113

G01 Z -0.0000 F 100.0000(Penetrate)
G02 X 87.1318 Y 164.7967 Z -0.0000 I 1.7211 J -25.1748 F 400.0000
G02 X 93.0703 Y 162.9434 Z -0.0000 I -4.1037 J -23.5896
G02 X 94.3596 Y 161.4096 Z -0.0000 I -0.9885 J -2.1397
G02 X 93.9688 Y 159.5644 Z -0.0000 I -2.0174 J -0.5367
G02 X 88.5341 Y 154.6432 Z -0.0000 I -18.2132 J 14.6518
G02 X 81.3867 Y 151.3516 Z -0.0000 I -14.7038 J 22.5219
G02 X 79.0714 Y 150.8740 Z -0.0000 I -4.0865 J 13.9597
G02 X 75.2910 Y 150.6035 Z -0.0000 I -4.5577 J 37.1530
G02 X 71.4882 Y 150.6241 Z -0.0000 I -1.5089 J 72.5225
G02 X 70.1250 Y 150.7656 Z -0.0000 I 0.3020 J 9.5455
G02 X 62.7645 Y 152.8895 Z -0.0000 I 6.3389 J 35.7846
G02 X 61.9570 Y 154.0898 Z -0.0000 I 0.4885 J 1.2003
G02 X 62.0380 Y 154.3465 Z -0.0000 I 0.4471 J 0.0000
G02 X 63.3652 Y 156.0977 Z -0.0000 I 24.2145 J -16.9736
G02 X 71.4110 Y 162.4995 Z -0.0000 I 18.8225 J -15.3993
G02 X 81.0859 Y 165.1113 Z -0.0000 I 11.4350 J -23.1329
G01 X 81.0859 Y 165.1113 Z -0.0000
G00 Z 0.0000

(End cutting path id: path7960)


(Start cutting path id: path7960)
(Change tool to Default tool)

G00 Z 0.0000
G00 X 88.3809 Y 196.0938

G01 Z -0.0000 F 100.0000(Penetrate)
G02 X 89.0154 Y 196.0604 Z -0.0000 I 0.2932 J -0.4745 F 400.0000
G02 X 92.6836 Y 192.7637 Z -0.0000 I -20.5032 J -26.5023
G02 X 97.8051 Y 184.8861 Z -0.0000 I -18.0815 J -17.3590
G02 X 99.6289 Y 175.7676 Z -0.0000 I -22.7295 J -9.2879
G02 X 98.9832 Y 169.7151 Z -0.0000 I -26.9478 J -0.1859
G02 X 97.0957 Y 164.4023 Z -0.0000 I -22.6238 J 5.0461
G02 X 96.1819 Y 162.7803 Z -0.0000 I -16.7489 J 8.3670
G02 X 96.0137 Y 162.6875 Z -0.0000 I -0.1683 J 0.1061
G02 X 94.9512 Y 163.0664 Z -0.0000 I 0.0000 J 1.6790
G02 X 91.4043 Y 166.4531 Z -0.0000 I 20.1323 J 24.6354
G02 X 85.4359 Y 178.0931 Z -0.0000 I 19.1117 J 17.1498
G02 X 86.0117 Y 191.0019 Z -0.0000 I 24.4696 J 5.3757
G02 X 87.6844 Y 195.3096 Z -0.0000 I 33.9441 J -10.7018
G02 X 88.3809 Y 196.0938 Z -0.0000 I 1.6575 J -0.7709
G01 X 88.3809 Y 196.0938 Z -0.0000
G00 Z 0.0000

(End cutting path id: path7960)


(Start cutting path id: path7960)
(Change tool to Default tool)

G00 Z 0.0000
G00 X 73.2910 Y 200.4609

G01 Z -0.0000 F 100.0000(Penetrate)
G02 X 78.1601 Y 200.2855 Z -0.0000 I 1.4089 J -28.5443 F 400.0000
G02 X 82.2188 Y 199.3711 Z -0.0000 I -2.5173 J -20.6392
G02 X 87.0519 Y 197.4388 Z -0.0000 I -14.0700 J -42.2031
G02 X 87.3555 Y 196.9609 Z -0.0000 I -0.2243 J -0.4779
G02 X 87.3175 Y 196.7803 Z -0.0000 I -0.4482 J 0.0000
G02 X 86.3262 Y 194.6250 Z -0.0000 I -66.5833 J 29.3177
G03 X 84.6226 Y 189.8857 Z -0.0000 I 22.2291 J -10.6663
G03 X 83.8750 Y 184.7305 Z -0.0000 I 25.6416 J -6.3503
G03 X 85.1275 Y 175.3120 Z -0.0000 I 26.8842 J -1.2174
G03 X 89.5391 Y 167.0312 Z -0.0000 I 24.9794 J 7.9923
G02 X 90.7450 Y 165.2197 Z -0.0000 I -10.4177 J -8.2424
G02 X 90.6250 Y 165.0684 Z -0.0000 I -0.0916 J -0.0507
G03 X 86.9413 Y 165.8201 Z -0.0000 I -6.8872 J -24.3473
G03 X 82.6562 Y 166.0859 Z -0.0000 I -4.1847 J -32.7859
G03 X 78.6197 Y 165.8739 Z -0.0000 I 0.1247 J -40.8971
G03 X 76.1504 Y 165.4199 Z -0.0000 I 1.6007 J -15.6502
G03 X 68.4225 Y 162.0157 Z -0.0000 I 7.1544 J -26.7147
G03 X 62.5215 Y 156.7188 Z -0.0000 I 13.1233 J -20.5554
G02 X 61.0935 Y 154.9405 Z -0.0000 I -1468.5640 J 1177.8533
G02 X 60.9297 Y 154.7383 Z -0.0000 I -28.2672 J 22.7278
G02 X 60.3063 Y 154.6691 Z -0.0000 I -0.3469 J 0.2831
G02 X 56.2188 Y 158.4356 Z -0.0000 I 21.7053 J 27.6571
G02 X 52.6836 Y 163.3654 Z -0.0000 I 17.8447 J 16.5287
G02 X 50.2148 Y 169.5000 Z -0.0000 I 25.4433 J 13.8032
G02 X 49.4074 Y 175.5095 Z -0.0000 I 21.7897 J 5.9865
G02 X 50.2285 Y 181.5859 Z -0.0000 I 23.0685 J -0.0234
G02 X 58.8909 Y 194.9156 Z -0.0000 I 25.2334 J -6.9186
G02 X 73.2910 Y 200.4609 Z -0.0000 I 15.6156 J -19.0809
G01 X 73.2910 Y 200.4609 Z -0.0000
G00 Z 0.0000

(End cutting path id: path7960)


(Start cutting path id: path7960)
(Change tool to Default tool)

G00 Z 0.0000
G00 X 49.0410 Y 181.6328

G01 Z -0.0000 F 100.0000(Penetrate)
G02 X 49.1487 Y 181.5920 Z -0.0000 I 0.0382 J -0.0618 F 400.0000
G02 X 49.1465 Y 181.2852 Z -0.0000 I -0.4968 J -0.1499
G03 X 48.4284 Y 177.0317 Z -0.0000 I 14.7240 J -4.6733
G03 X 48.8672 Y 171.0391 Z -0.0000 I 30.0000 J -0.8156
G03 X 52.2773 Y 161.8094 Z -0.0000 I 26.9869 J 4.7262
G03 X 58.3320 Y 155.0508 Z -0.0000 I 20.0432 J 11.8643
G02 X 59.7931 Y 153.9473 Z -0.0000 I -211.5934 J -281.6926
G02 X 60.0059 Y 153.7793 Z -0.0000 I -4.2936 J -5.6546
G02 X 60.0638 Y 153.5745 Z -0.0000 I -0.1185 J -0.1441
G02 X 59.3438 Y 151.8594 Z -0.0000 I -13.3511 J 4.5964
G03 X 56.5640 Y 138.5268 Z -0.0000 I 23.8889 J -11.9366
G03 X 60.7012 Y 125.9199 Z -0.0000 I 25.3146 J 1.3250
G02 X 61.1488 Y 125.1470 Z -0.0000 I -6.5538 J -4.3115
G01 X 61.1172 Y 125.0957 Z -0.0000
G02 X 60.0887 Y 125.5580 Z -0.0000 I 0.0000 J 1.3751
G02 X 54.8223 Y 132.1894 Z -0.0000 I 57.9299 J 51.4128
G02 X 47.6080 Y 146.5812 Z -0.0000 I 43.4287 J 30.7739
G02 X 45.1582 Y 162.0644 Z -0.0000 I 48.0173 J 15.5328
G02 X 45.4382 Y 167.6729 Z -0.0000 I 55.2315 J 0.0538
G02 X 46.2480 Y 172.8477 Z -0.0000 I 47.8335 J -4.8352
G02 X 48.3341 Y 180.7267 Z -0.0000 I 81.2471 J -17.2951
G02 X 49.0410 Y 181.6328 Z -0.0000 I 1.5769 J -0.5015
G01 X 49.0410 Y 181.6328 Z -0.0000
G00 Z 0.0000

(End cutting path id: path7960)


(Start cutting path id: path7960)
(Change tool to Default tool)

G00 Z 0.0000
G00 X 131.9336 Y 125.7949

G01 Z -0.0000 F 100.0000(Penetrate)
G02 X 132.0501 Y 125.5961 Z -0.0000 I 0.0393 J -0.1105 F 400.0000
G02 X 126.9180 Y 121.4082 Z -0.0000 I -63.8993 J 73.0681
G02 X 115.5996 Y 114.9436 Z -0.0000 I -30.1234 J 39.6003
G02 X 102.6309 Y 111.4941 Z -0.0000 I -19.9260 J 48.8110
G02 X 96.3239 Y 111.0213 Z -0.0000 I -7.2598 J 54.5324
G02 X 91.0391 Y 111.2930 Z -0.0000 I -0.6677 J 38.5472
G02 X 86.5209 Y 112.0107 Z -0.0000 I 7.3097 J 60.5985
G02 X 82.2285 Y 113.0332 Z -0.0000 I 11.0073 J 55.7267
G02 X 79.1901 Y 113.9121 Z -0.0000 I 48.1446 J 172.1398
G02 X 79.0918 Y 113.9707 Z -0.0000 I 0.0668 J 0.2237
G01 X 79.1086 Y 114.0129 Z -0.0000
G02 X 82.4844 Y 114.0625 Z -0.0000 I 3.6561 J -133.9144
G03 X 85.9472 Y 114.1793 Z -0.0000 I -0.1147 J 54.8015
G03 X 87.4824 Y 114.3906 Z -0.0000 I -0.7083 J 10.8266
G03 X 96.8927 Y 118.2351 Z -0.0000 I -5.8841 J 27.8416
G03 X 103.9961 Y 124.9160 Z -0.0000 I -14.0711 J 22.0777
G01 X 104.5078 Y 125.6191 Z -0.0000
G01 X 105.9004 Y 124.8672 Z -0.0000
G03 X 117.4007 Y 121.8673 Z -0.0000 I 11.8852 J 22.0193
G03 X 129.2285 Y 124.5078 Z -0.0000 I 0.4003 J 26.0178
G02 X 131.6849 Y 125.6919 Z -0.0000 I 109.0418 J -223.0664
G02 X 131.9336 Y 125.7949 Z -0.0000 I 1.1348 J -2.3875
G01 X 131.9336 Y 125.7949 Z -0.0000
G00 Z 0.0000

(End cutting path id: path7960)



(Footer)
M5
G00 X0.0000 Y0.0000
M2
(Using default footer. To add your own footer create file "footer" in the output dir.)
(end)
%
